X:1
T:Little Donald in the Pigpen
L:1/8
M:4/4
I:linebreak $
K:D
V:1 treble
V:1
 "A"e2 cA eAdA | Aeec "D"defa | "A"e2 cA eA c2 | "G"BABc "A"defa |$
 "A"e2 cA eAdA | Aeec"D" defa | "A"eecA eA c2 | "G" BABc"D" defd |$
 "A"eaaf"G" gfed | "A"eaaf g2 fd | "A"eaaf"G" gfed | "A"cABc"D" defd |$
 "A"eaaf"G" gfed |  "A"eaaf"G" g2 fd | "D"afge faed | "G"BGGd BGBe |["final" "A"e8 :|
